!!!COM: Palestrina, Giovanni Perluigi da
!!!OPR: Missa Pater noster
!!!OMD: Credo
!!!OTL: Crucifixus
**kern	**kern	**kern
*Itenor	*Icalto	*Icant
!Tenor	!Altus	!Cantus
*clefGv2	*clefG2	*clefG2
*k[]	*k[]	*k[]
*D:dor	*D:dor	*D:dor
*M4/2	*M4/2	*M4/2
=79	=79	=79
0r	1g	1r
.	1d	1dd
=80	=80	=80
0r	1.f	1a
.	.	[1cc
.	2g	.
=81	=81	=81
0r	2a	2cc]
.	2f	2dd
.	2g	2ee
.	2a	2cc
=82	=82	=82
1r	2b-	2dd
.	4a	2ee
.	4g	.
1d	4a	[1ff
.	4g	.
.	4f	.
.	4g	.
=83	=83	=83
1A	4a	2ff]
.	4b	.
.	2.cc	4ee
.	.	4dd
[1c	.	[1ee
.	4b	.
.	4a	.
.	4g	.
=84	=84	=84
2c]	1a	2ee]
2d	.	4dd
.	.	4cc
2e	2g#	2b
2c	[2a	2a
=85	=85	=85
2d	2a]	1b
2e	2g#	.
1f	1a	2r
.	.	2a
=86	=86	=86
1e	2r	2b
.	2e	2cc
1r	2f	2dd
.	2g	2dd
=87	=87	=87
0r	2a	4cc
.	.	4b
.	2.cc	4a
.	.	4b
.	.	4cc
.	4b	4dd
.	4g	4ee
.	4a	4cc
=88	=88	=88
2r	2b-	4dd
.	.	4ee
2A	2a	1ff
2B	1g	.
2c	.	2ee
=89	=89	=89
2d	4f	2ff
.	4g	.
2d	4a	2ff
.	4b	.
4c	[1cc	4ee
4B	.	4dd
4A	.	4cc
4B	.	4b
=90	=90	=90
4c	1cc]	2a
4d	.	.
4e	.	2g
4c	.	.
4d	1r	2b-
4e	.	.
[2f	.	2a
=91	=91	=91
2f]	2r	1g
2e	1cc	.
2f	.	2f
2d	2b-	[2ff
=92	=92	=92
1c	2a	2ff]
.	2g	2ee
2r	2b-	2dd
[2f	2a	2cc
=93	=93	=93
2f]	1g	2dd
2e	.	2ee
2d	2r	1a
2c	[2a	.
=94	=94	=94
2d	2a]	1b
2e	2g	.
4A	2f	2cc
4B	.	.
4c	2e	[2ee
8B	.	.
8c	.	.
=95	=95	=95
1d	1f	4ee]
.	.	4dd
.	.	1dd
1A	1e	.
.	.	2cc#
=96	=96	=96
2r	1d	2.dd
2d	.	.
.	.	8cc
.	.	8b
2.d	2r	1a
.	2a	.
4d	.	.
=97	=97	=97
2c	2.a	0r
2d	.	.
.	4a	.
2e	2g	.
2f	2a	.
=98	=98	=98
4g	2b	0r
4f	.	.
4e	2b	.
4d	.	.
2c	4cc	.
.	4b	.
[2d	4a	.
.	4g	.
=99	=99	=99
4d]	4f	2r
4c	4g	.
4B	1a	2dd
4A	.	.
1B	.	2.dd
.	2g#	.
.	.	4dd
=100	=100	=100
2A	0a	2cc
2.d	.	2dd
.	.	2ee
8c#	.	.
8B	.	.
2c#	.	2ee
=101	=101	=101
1d	2r	4ff
.	.	4ee
.	2a	4dd
.	.	4cc
1r	2g	4b
.	.	4cc
.	2f	[2dd
=102	=102	=102
1r	2g	2dd]
.	2a	2cc#
2r	4d	1dd
.	4e	.
2d	4f	.
.	4g	.
=103	=103	=103
2c	2a	2r
2B	2.g	2dd
2c	.	2cc
.	8f#	.
.	8e	.
2d	2f#	2a
=104	=104	=104
4G	2g	1b
4A	.	.
4B	4d	.
4c	4e	.
2d	4f	4a
.	4g	4b
[2c	2a	4cc
.	.	4dd
=105	=105	=105
4c]	2.g	2ee
8B	.	.
8A	.	.
2B	.	2.dd
.	4f	.
1c	1e	.
.	.	4cc
.	.	[2cc
=106	=106	=106
1G	1d	2cc]
.	.	2b
1r	2c	[1cc
.	[2f	.
=107	=107	=107
2r	2f]	1cc]
1c	2g	.
.	1a	1r
2d	.	.
=108	=108	=108
1e	2g	0r
.	2g	.
[1d	2b-	.
.	4a	.
.	4g	.
=109	=109	=109
2d]	2f	2r
2e	2g	1cc
1f	1a	.
.	.	2dd
=110	=110	=110
2e	2g	1ee
2c	2.cc	.
2.g	.	[1dd
.	4b	.
.	4b	.
8f	8a	.
8e	8g	.
=111	=111	=111
2f	4a	2dd]
.	4b	.
2e	1cc	2ee
1d	.	1ff
.	2b	.
=112	=112	=112
1c	2cc	1ee
.	2g	.
1r	2f	1dd
.	2g	.
=113	=113	=113
0r	2a	2cc
.	4g	2dd
.	4f	.
.	2g	2.ee
.	2a	.
.	.	4ee
=114	=114	=114
0r	2f	2dd
.	2.g	2.ee
.	4f	4dd
.	4f	[2dd
.	8e	.
.	8d	.
=115	=115	=115
1r	1e	2dd]
.	.	2cc#
2r	1d	4dd
.	.	4ee
2d	.	4ff
.	.	4dd
=116	=116	=116
2c	2r	2ee
2d	1a	4dd
.	.	4cc
2.e	.	1b
.	2g	.
4e	.	.
=117	=117	=117
2d	2f	0r
2.e	2.g	.
4d	4f	.
[2d	2f	.
=118	=118	=118
2d]	1e	1r
2c#	.	.
1d	4d	2r
.	4e	.
.	4f	2dd
.	4g	.
=119	=119	=119
1f	2a	2cc
.	2a	2dd
2c	2g	2.ee
2c	2a	.
.	.	4ee
=120	=120	=120
2.g	2.b-	2dd
.	.	2.ee
4g	4b-	.
2f	2a	.
.	.	4dd
2g	[2b-	[2dd
=121	=121	=121
2G	2b-]	2dd]
2A	2.a	2cc
2B-	.	2.dd
.	4g	.
2G	[2g	.
.	.	4cc
=122	=122	=122
1d	2g]	2b-
.	2f#	2a
1G	1g	1b-
=123	=123	=123
0d	0f#	0a
*-	*-	*-
!!!CDT: 1525/^1526/-1594/2/2
!!!OCY: Italia
!!!AGN: Mass (Paraphrase)
!!!AST: renaissance, vocal
!!!ASW: Prayer
!!!PWK: Masses, Book 10
!!!RNB: Cadence finals: A
!!!YOR: Le Opere Complete, v. 27, p. 199
!!!YOO: Rome, Italy: Fratelli Scalera
!!!END: 1992//
!!!EED: John Miller
!!!YEC: Copyright 2000, John Miller
!!!YEN: United States of America
!!!YEM: Rights to all derivative electronic formats reserved.
!!!YEM: Refer to licensing agreement for further details.
!!!YEM: This file must be accompanied by the licensing agreement.
!!!YEM: A copy of the licensing agreement may be found at http://www.music-cog.ohio-state.edu/HumdrumDatabases/Palestrina/license.txt
!!!EMD: converted to Humdrum by Bret Aarden
